X:14
T:Emma
T:Vals fr\aan Finland
C:Trad.
O:Finland
R:Waltz
Z:Bart Brashers, bart.brashers@nyckelharpa.org
M:3/4
L:1/4
Q:1/4=180
K:Am
%P:A
A,/C/ |: "Am"E>E E | C A, A,/C/ | E>E E | C A, A,/C/ | "Em"B,2 B,/C/ |
D C B, | "Am"A,>B, C/D/ | E2 A,/C/ | E>E E | C A, C | E>E E |
C A, C | "Em"B,2 B,/C/ | D C B, | "Am"A,>B, C/B,/ |[1 A,2 A,/C/ :|2 A, C E |]
%P:B
|: "Dm"A>A A | A G F | "Am"E>E E    | E D C | "Em"B,2 B,/C/ | D C B, |
"Am"A,>B, C/D/ | E2 C/E/ | "Dm"A>A A | A G F | "Am"E>D E/F/ | E D C |
"Em"B,2 B,/C/ | D C B, | "Am"A,>B, C/B,/ |[1 A, C E :|2 A,2 |]

